X:1
T:Stop Me and Buy One
T:World Turned Upside Down
M:4/4
Q:1/4=145
L:1/4
K:G
!fermata! G !fermata! E  | "G" DGGG| "D" A/B/c/d/ "G" B A/B/ | "C" cE "D" FB | "D" A2 "G" G2 :|
| "D" AF/G/A2 | "D" AF/G/A2 | "D" AF/G/ A/G/ F | "A" E2 "D" D2 |
"D" d3/2 c/B  A/G/ | "D" A/B/c/d/ "G" B  A/B/ | "C" c E "D" F B | "D" A2 "G" G2 ||

%%textfont Times-Italic 12
%%begintext justify

arr. Alison S. 2019-11-17
%%endtext

